gtk-icons/Papirus-Dark-GTK/16x16/actions/kr_comparedirs.svg

<?xml version="1.0" encoding="UTF-8" standalone="no"?>
<!-- Created with Inkscape (http://www.inkscape.org/) -->

<svg
   xmlns:dc="http://purl.org/dc/elements/1.1/"
   xmlns:cc="http://creativecommons.org/ns#"
   xmlns:rdf="http://www.w3.org/1999/02/22-rdf-syntax-ns#"
   xmlns:svg="http://www.w3.org/2000/svg"
   xmlns="http://www.w3.org/2000/svg"
   xmlns:sodipodi="http://sodipodi.sourceforge.net/DTD/sodipodi-0.dtd"
   xmlns:inkscape="http://www.inkscape.org/namespaces/inkscape"
   width="16"
   height="16"
   id="svg3049"
   version="1.1"
   inkscape:version="0.91 r13725"
   sodipodi:docname="kr_comparedirs.svg"
   inkscape:export-filename="/home/uri/.kde/share/icons/NITRUX-KDE/16x16/actions/view-right-new.png"
   inkscape:export-xdpi="30"
   inkscape:export-ydpi="30">
  <defs
     id="defs3051">
    <style
       type="text/css"
       id="current-color-scheme">
      .ColorScheme-Text {
        color:#4d4d4d;
      }
      .ColorScheme-Background {
        color:#eff0f1;
      }
      .ColorScheme-Highlight {
        color:#3daee9;
      }
      .ColorScheme-ViewText {
        color:#31363b;
      }
      .ColorScheme-ViewBackground {
        color:#fcfcfc;
      }
      .ColorScheme-ViewHover {
        color:#93cee9;
      }
      .ColorScheme-ViewFocus{
        color:#3daee9;
      }
      .ColorScheme-ButtonText {
        color:#31363b;
      }
      .ColorScheme-ButtonBackground {
        color:#eff0f1;
      }
      .ColorScheme-ButtonHover {
        color:#93cee9;
      }
      .ColorScheme-ButtonFocus{
        color:#3daee9;
      }
      </style>
  </defs>
  <sodipodi:namedview
     id="base"
     pagecolor="#ffffff"
     bordercolor="#666666"
     borderopacity="1.0"
     inkscape:pageopacity="0.0"
     inkscape:pageshadow="2"
     inkscape:zoom="22.627417"
     inkscape:cx="5.7393364"
     inkscape:cy="5.4231088"
     inkscape:document-units="px"
     inkscape:current-layer="layer1"
     showgrid="false"
     fit-margin-top="0"
     fit-margin-left="0"
     fit-margin-right="0"
     fit-margin-bottom="0"
     inkscape:window-width="1600"
     inkscape:window-height="847"
     inkscape:window-x="0"
     inkscape:window-y="30"
     inkscape:window-maximized="1"
     inkscape:showpageshadow="false"
     borderlayer="true"
     inkscape:snap-bbox="true"
     inkscape:snap-global="true"
     inkscape:object-nodes="true"
     showguides="false">
    <inkscape:grid
       type="xygrid"
       id="grid4085" />
    <sodipodi:guide
       position="2.0000044,14.00003"
       orientation="12,0"
       id="guide4075" />
    <sodipodi:guide
       position="2.0000044,2.0000296"
       orientation="0,12"
       id="guide4077" />
    <sodipodi:guide
       position="14.000004,2.0000296"
       orientation="-12,0"
       id="guide4079" />
    <sodipodi:guide
       position="14.000004,14.00003"
       orientation="0,-12"
       id="guide4081" />
  </sodipodi:namedview>
  <metadata
     id="metadata3054">
    <rdf:RDF>
      <cc:Work
         rdf:about="">
        <dc:format>image/svg+xml</dc:format>
        <dc:type
           rdf:resource="http://purl.org/dc/dcmitype/StillImage" />
        <dc:title />
      </cc:Work>
    </rdf:RDF>
  </metadata>
  <g
     inkscape:label="Capa 1"
     inkscape:groupmode="layer"
     id="layer1"
     transform="translate(-421.71429,-531.79074)">
    <path
       style="color:#4d4d4d;font-style:normal;font-variant:normal;font-weight:normal;font-stretch:normal;font-size:medium;line-height:normal;font-family:sans-serif;text-indent:0;text-align:start;text-decoration:none;text-decoration-line:none;text-decoration-style:solid;text-decoration-color:#ffffff;letter-spacing:normal;word-spacing:normal;text-transform:none;direction:ltr;block-progression:tb;writing-mode:lr-tb;baseline-shift:baseline;text-anchor:start;white-space:normal;clip-rule:nonzero;display:inline;overflow:visible;visibility:visible;opacity:0.72;isolation:auto;mix-blend-mode:normal;color-interpolation:sRGB;color-interpolation-filters:linearRGB;solid-color:#ffffff;solid-opacity:1;fill:#ffffff;fill-opacity:1;fill-rule:nonzero;stroke:none;stroke-width:2;stroke-linecap:round;stroke-linejoin:round;stroke-miterlimit:4;stroke-dasharray:none;stroke-dashoffset:0;stroke-opacity:1;color-rendering:auto;image-rendering:auto;shape-rendering:auto;text-rendering:auto;enable-background:accumulate"
       d="M 3.5 1 C 2.13102 1.00002 1.00001 2.13115 1 3.5 L 1 3.5019531 C 1.001 4.2647531 1.42939 4.8839094 2 5.3496094 L 2 9 L 2 11 C 2 12.64501 3.35485 14 5 14 C 4.99982 14.5639 5.4655869 15.01646 6.0292969 15 C 6.2354169 14.994 6.4345594 14.924391 6.5996094 14.800781 L 8.5996094 13.300781 C 9.1325594 12.900721 9.1325594 12.101232 8.5996094 11.701172 L 6.5996094 10.201172 C 5.9457894 9.7114019 5.01246 10.169578 5 10.986328 L 5 9 L 5 5.3496094 C 5.57092 4.8839194 5.99892 4.2649931 6 3.5019531 L 6 3.5 C 5.99998 2.13115 4.86897 1.00002 3.5 1 z M 9.9707031 1 C 9.7645831 1.006 9.5654406 1.0756088 9.4003906 1.1992188 L 7.4003906 2.6992188 C 6.8674406 3.0992788 6.8674406 3.8987681 7.4003906 4.2988281 L 9.4003906 5.7988281 C 10.054211 6.2885981 10.98754 5.8304219 11 5.0136719 L 11 7 L 11 10.650391 C 10.42908 11.116081 10.00108 11.735007 10 12.498047 L 10 12.5 C 10.00002 13.86885 11.13103 14.99998 12.5 15 C 13.86898 14.99998 14.99999 13.86885 15 12.5 L 15 12.498047 C 14.999 11.735247 14.57061 11.116091 14 10.650391 L 14 7 L 14 5 C 14 3.35499 12.64515 2 11 2 C 11.00018 1.4361 10.534413 0.98354 9.9707031 1 z "
       transform="translate(421.71429,531.79074)"
       id="path4141" />
  </g>
</svg>

<?xml version="1.0" encoding="UTF-8" standalone="no"?>
<!-- Created with Inkscape (http://www.inkscape.org/) -->
<svg id="svg3049" xmlns:rdf="http://www.w3.org/1999/02/22-rdf-syntax-ns#" xmlns="http://www.w3.org/2000/svg" height="16" width="16" version="1.1" xmlns:cc="http://creativecommons.org/ns#" xmlns:dc="http://purl.org/dc/elements/1.1/">
 <defs id="defs3051">
  <style id="current-color-scheme" type="text/css">.ColorScheme-Text {
        color:#4d4d4d;
      }
      .ColorScheme-Background {
        color:#eff0f1;
      }
      .ColorScheme-Highlight {
        color:#3daee9;
      }
      .ColorScheme-ViewText {
        color:#31363b;
      }
      .ColorScheme-ViewBackground {
        color:#fcfcfc;
      }
      .ColorScheme-ViewHover {
        color:#93cee9;
      }
      .ColorScheme-ViewFocus{
        color:#3daee9;
      }
      .ColorScheme-ButtonText {
        color:#31363b;
      }
      .ColorScheme-ButtonBackground {
        color:#eff0f1;
      }
      .ColorScheme-ButtonHover {
        color:#93cee9;
      }
      .ColorScheme-ButtonFocus{
        color:#3daee9;
      }</style>
 </defs>
 <metadata id="metadata3054">
  <rdf:RDF>
   <cc:Work rdf:about="">
    <dc:format>image/svg+xml</dc:format>
    <dc:type rdf:resource="http://purl.org/dc/dcmitype/StillImage"/>
    <dc:title/>
   </cc:Work>
  </rdf:RDF>
 </metadata>
 <g id="layer1" transform="translate(-421.71 -531.79)">
  <path id="path4141" opacity=".72" style="color-rendering:auto;text-decoration-color:#ffffff;color:#4d4d4d;isolation:auto;mix-blend-mode:normal;shape-rendering:auto;solid-color:#ffffff;block-progression:tb;text-decoration-line:none;text-decoration-style:solid;image-rendering:auto;white-space:normal;text-indent:0;text-transform:none" d="m3.5 1c-1.369 0-2.5 1.1312-2.5 2.5v0.002c0.001 0.7628 0.4294 1.3819 1 1.8476v3.6504 2c0 1.645 1.3548 3 3 3-0.0002 0.564 0.4656 1.016 1.0293 1 0.2061-0.006 0.4053-0.076 0.5703-0.199l2-1.5c0.533-0.4 0.533-1.2 0-1.6l-2-1.5c-0.6538-0.4896-1.5871-0.031-1.5996 0.785v-1.986-3.6504c0.5709-0.4657 0.9989-1.0846 1-1.8476v-0.002c0-1.3688-1.131-2.5-2.5-2.5zm6.4707 0c-0.2061 0.006-0.4053 0.0756-0.5703 0.1992l-2 1.5c-0.533 0.4001-0.533 1.1996 0 1.5996l2 1.5c0.6536 0.4898 1.5876 0.0316 1.5996-0.7851v1.9863 3.65c-0.571 0.466-0.999 1.085-1 1.848v0.002c0 1.369 1.131 2.5 2.5 2.5s2.5-1.131 2.5-2.5v-0.002c-0.001-0.763-0.429-1.382-1-1.848v-3.65-2c0-1.645-1.355-3-3-3 0-0.5639-0.466-1.0165-1.0293-1z" transform="translate(421.71 531.79)" fill="#fff"/>
 </g>
</svg>
